X:254
T: UND UNTERM BRUSTLATZ THUTS MIR JUCKEN
N: Z0253
O: Europa, Mitteleuropa, Deutschland, Schwaben
R: lyrisches Lied, Romanze
M: 3/4
L: 1/16
K: D
A,2F,2G,2 | A,2F2F2E2DCDB, | A,2D,2F,2
A,2B,2A,2 | A,2C2E,2G,2B,2A,2 | A,2D,2F,4
F,2G,2 | A,2F2F2E2DCDB, | A,4F,2
A,2B,2A,2 | A,2C2E2G2F2E2 | D4z2
A,2B,2A,2 | A,2C2C2A,2B,2A,2 | A,2D,2D,2
A,2B,2A,2 | A,2C2E,2G,2B,2A,2 | A,2D,2F,4
F,2G,2 | A,2F2F2E2DCDB, | A,4F,2
A,2B,2A,2 | A,2C2E2G2F2E2 | D4z2

